!!!SOCIAL_FUNCTION:	dream songs
!!!PDT:	1932
!!!OTL: No_54_Dream_of_the_Underground_Bear.krn
!!!REG: Wisconsin
!!!LANG: Non-Tone
!!!LING_GROUP: Algonquin
**kern
*staff1
=1-
*clefF4
*k[]
*M3/4
4d\
8.e\L
16e\Jk
8.d\L
16d\Jk
=2||
*M2/4
4.c\
8c\
=3||
*M3/4
[2c\
8c\L]
8G\J
=4
4d\
8.e\L
16e\Jk
8.d\L
16d\Jk
=5||
*M2/4
4c\
8.c\L
16c\Jk
=6||
*M3/4
2c\
4r
=7||
=
*k[b-e-a-]
*M2/4
8.d\L
16c\Jk
8.c\L
16Bn\Jk
=8
2c\
=9
12c\L
12B-\
12G\J
8B-\L
16B-\L
16G\JJ
=10||
*M3/4
8.F\L
16F\Jk
8.E-\L
16E-\Jk
16C/LL
16C/JJ
8r
=11||
*M2/4
16E-\LK
8.F\J
16F\LK
8.E-\J
=12
16E-/LK
8.C/J
8.C/L
16C/Jk
=13
2C/
=14
4C/
4r
==:|!
*-
